X:0484
T:In Wine there is all.
M:3/4
L:1/8
Q:3/4=72 "Allegretto"
I: ||
Z:Jack Campin * www.campin.me.uk * 2009
K:D
A2 |F3 G A2| D4  d2|c3d e2| A4 \
A>G|F2A2 d2| B3g f2|e3d c2|Hd4
d>e|f3 e d2|Ha4  gf|e3f d2|Hc4 \
B>A|d2d2 A2|HB4  FG|A3B A2| D4|]
<end>
<start>
